icon_installer/data/icons/scalable/actions/show-horizontal-arrows-disabled-symbolic.svg

<?xml version="1.0" encoding="UTF-8"?>
<svg height="16px" viewBox="0 0 16 16" width="16px" xmlns="http://www.w3.org/2000/svg">
    <g fill="#222222">
        <path d="m 5 7 c -0.308594 0 -0.613281 0.089844 -0.8125 0.28125 l -3.59375 3.71875 l 3.65625 3.71875 c 0.199219 0.191406 0.441406 0.28125 0.75 0.28125 h 1 v -1 c 0 -0.257812 -0.128906 -0.527344 -0.3125 -0.71875 l -1.28125 -1.28125 h 4.59375 s 1 0 1 -1 c 0 0 0 -1 -1 -1 h -4.625 l 1.21875 -1.28125 c 0.183594 -0.191406 0.40625 -0.460938 0.40625 -0.71875 v -1 z m 0 0" fill-opacity="0.34902"/>
        <path d="m 11 11 h 1.375 l 1.125 1.09375 l 1.09375 -1.09375 h 1.40625 v 1.46875 l -1.09375 1.0625 l 1.09375 1.0625 v 1.40625 h -1.4375 l -1.0625 -1.0625 l -1.0625 1.0625 h -1.4375 v -1.40625 l 1.0625 -1.0625 l -1.0625 -1.0625 z m 0 0"/>
        <path d="m 11 9 c 0.308594 0 0.613281 -0.089844 0.8125 -0.28125 l 3.59375 -3.71875 l -3.65625 -3.71875 c -0.199219 -0.191406 -0.441406 -0.28125 -0.75 -0.28125 h -1 v 1 c 0 0.257812 0.128906 0.527344 0.3125 0.71875 l 1.28125 1.28125 h -4.59375 c -0.527344 -0.007812 -1 0.472656 -1 1 s 0.472656 1.007812 1 1 h 4.625 l -1.21875 1.28125 c -0.183594 0.191406 -0.40625 0.460938 -0.40625 0.71875 v 1 z m 0 0" fill-opacity="0.34902"/>
    </g>
</svg>

<svg xmlns="http://www.w3.org/2000/svg" width="16" height="16"><g fill="#222"><path fill-opacity=".349" d="M5 7c-.309 0-.613.09-.813.281L.595 11l3.656 3.719c.2.191.441.281.75.281h1v-1c0-.258-.129-.527-.313-.719L4.407 12H9s1 0 1-1c0 0 0-1-1-1H4.375l1.219-1.281C5.777 8.527 6 8.258 6 8V7zm0 0"/><path d="M11 11h1.375l1.125 1.094L14.594 11H16v1.469l-1.094 1.062L16 14.594V16h-1.438L13.5 14.937 12.437 16H11v-1.406l1.063-1.063L11 12.47zm0 0"/><path fill-opacity=".349" d="M11 9c.309 0 .613-.09.813-.281L15.405 5 11.75 1.281C11.55 1.09 11.309 1 11 1h-1v1c0 .258.129.527.313.719L11.592 4H7c-.527-.008-1 .473-1 1s.473 1.008 1 1h4.625l-1.219 1.281C10.223 7.473 10 7.742 10 8v1zm0 0"/></g></svg>
